X: 31
T: 31. Ach lieben Christen, seid getrost
N: Derived from chor031.krn
C: Johann Sebastian Bach
%%abc-version 2.0
%%abcx-abcm2ps-target-version 5.9.1 (29 Sep 2008)
%%abc-creator hum2abc beta
%%abcx-conversion-date 2019/03/11 17:28:17
%%abc-edited-by Craig Stuart Sapp
%%humdrum-veritas 4227383020
%%humdrum-veritas-data 1556472617
%%
%%barnumbers 0
L: 1/4
M: C
%%staves [1 2 3 4]
V: 1 clef=treble
V: 2 clef=treble
V: 3 clef=treble-8
V: 4 clef=bass
K: C
[V:1] c [I:setbarnb 1]| 
[V:2] E/F/ | 
[V:3] c | 
[V:4] A, | 
[V:1] cA/B/ c/d/e | 
[V:2] GFGG | 
[V:3] cccc | 
[V:4] E,F,E,/D,/C, | 
[V:1] d/e//f//d!fermata!cc | 
[V:2] AG/F/!fermata!E^F | 
[V:3] cB!fermata!GA | 
[V:4] F,G,!fermata!C,A, | 
[V:1] BA/B/cd/c/ | 
[V:2] G=FEA- | 
[V:3] ddc/B/A | 
[V:4] G,DA,/G,/ F,/E,/ | 
[V:1] B2!fermata!A :|]  
[V:2] A^G!fermata!E :|]  
[V:3] fe/d/!fermata!^c :|]  
[V:4] D,E,!fermata!A,, :|]  
[V:1] d [I:setbarnb 5]| 
[V:2] =G | 
[V:3] B | 
[V:4] G,, | 
[V:1] eeB/c/d | 
[V:2] GGD/E/F | 
[V:3] cG/A/BA/B/ | 
[V:4] C,/D,/ E,/F,/G,F, | 
[V:1] cc!fermata!Bc | 
[V:2] EA!fermata!^GA | 
[V:3] c/d/e!fermata!ee | 
[V:4] A,,/B,,/C,/D,/!fermata!E,A,/=G,/ | 
[V:1] dA/B/cB | 
[V:2] A/=G/^FED/G/ | 
[V:3] AdG/A/ B/d/ | 
[V:4] ^F,/E,/D,E,/F,/G, | 
[V:1] A//B//c/A!fermata!Gc | 
[V:2] G/E/^F!fermata!DE | 
[V:3] ed/c/!fermata!BG/A/ | 
[V:4] C,D,!fermata!G,,E,/^F,/ | 
[V:1] BA/B/cd/c/ | 
[V:2] D/E/ ^F/=F/EA- | 
[V:3] B/c/dc/B/A/c/ | 
[V:4] G,^F,/^G,/ A,/=G,/=F,/E,/ | 
[V:1] B2!fermata!A |]  
[V:2] A^G!fermata!E |]  
[V:3] f/d/ B/e/!fermata!^c |]  
[V:4] D,/B,,/E,!fermata!A,, |]  



